svg/FoundationIcons/fi-arrows-out.svg

<svg xmlns="http://www.w3.org/2000/svg" viewBox="0 0 100 100" enable-background="new 0 0 100 100"><path d="m4.712 69.854l-4.69 28.27c-.086.512.082 1.034.449 1.401.002.003.002.003.002.003.37.368.893.535 1.406.447l28.2-4.765c.594-.1 1.081-.525 1.264-1.1.185-.572.031-1.202-.396-1.628l-5.513-5.513 14.802-14.802c.63-.629.63-1.647 0-2.277l-10.2-10.201c-.63-.629-1.648-.629-2.278 0l-14.801 14.801-5.515-5.515c-.425-.425-1.055-.577-1.63-.394-.575.184-.998.674-1.097 1.27"/><path d="m95.29 30.15l4.69-28.27c.085-.512-.083-1.034-.449-1.4-.002-.003-.002-.003-.002-.003-.37-.367-.893-.534-1.406-.447l-28.2 4.765c-.594.1-1.081.525-1.265 1.1-.185.572-.031 1.202.396 1.628l5.513 5.513-14.802 14.801c-.629.629-.629 1.648 0 2.278l10.2 10.201c.63.629 1.648.629 2.278 0l14.802-14.802 5.515 5.515c.425.425 1.056.578 1.63.394.575-.184.999-.674 1.097-1.27"/><path d="m69.854 95.29l28.27 4.69c.512.086 1.035-.082 1.401-.449.002-.003.002-.003.002-.003.368-.37.535-.892.448-1.406l-4.765-28.2c-.1-.594-.525-1.081-1.1-1.265-.572-.185-1.202-.031-1.628.396l-5.513 5.513-14.801-14.803c-.628-.628-1.647-.628-2.277.0001l-10.201 10.201c-.629.629-.629 1.648 0 2.277l14.802 14.802-5.515 5.515c-.425.425-.577 1.055-.393 1.63.183.575.673.999 1.269 1.097"/><path d="m30.15 4.712l-28.27-4.69c-.513-.086-1.034.082-1.401.449-.003.003-.003.003-.003.003-.367.37-.534.892-.447 1.406l4.766 28.2c.1.593.525 1.081 1.099 1.264.573.186 1.202.032 1.629-.395l5.513-5.513 14.8 14.801c.63.63 1.648.63 2.278.0001l10.201-10.201c.63-.63.63-1.648 0-2.278l-14.802-14.802 5.515-5.515c.424-.425.577-1.056.394-1.63-.184-.575-.674-.999-1.27-1.097"/></svg>

<?xml version="1.0" encoding="utf-8"?>
<!-- Generator: Adobe Illustrator 17.0.0, SVG Export Plug-In . SVG Version: 6.00 Build 0)  -->
<!DOCTYPE svg PUBLIC "-//W3C//DTD SVG 1.1//EN" "http://www.w3.org/Graphics/SVG/1.1/DTD/svg11.dtd">
<svg version="1.1" id="Layer_1" xmlns="http://www.w3.org/2000/svg" xmlns:xlink="http://www.w3.org/1999/xlink" x="0px" y="0px"
	 width="100px" height="100px" viewBox="0 0 100 100" enable-background="new 0 0 100 100" xml:space="preserve">
<g>
	<g>
		<path d="M4.712,69.854l-4.69,28.273c-0.086,0.512,0.082,1.034,0.449,1.401c0.002,0.003,0.002,0.003,0.002,0.003
			c0.37,0.368,0.893,0.535,1.406,0.447l28.197-4.765c0.594-0.1,1.081-0.525,1.264-1.1c0.185-0.572,0.031-1.202-0.396-1.628
			l-5.513-5.513l14.802-14.802c0.63-0.629,0.63-1.647,0-2.277l-10.2-10.201c-0.63-0.629-1.648-0.629-2.278,0L12.954,74.493
			l-5.515-5.515c-0.425-0.425-1.055-0.577-1.63-0.394C5.234,68.768,4.811,69.258,4.712,69.854z"/>
	</g>
	<g>
		<path d="M95.288,30.146l4.69-28.273c0.085-0.512-0.083-1.034-0.449-1.4C99.527,0.47,99.527,0.47,99.527,0.47
			c-0.37-0.367-0.893-0.534-1.406-0.447L69.924,4.788c-0.594,0.1-1.081,0.525-1.265,1.1c-0.185,0.572-0.031,1.202,0.396,1.628
			l5.513,5.513L59.766,27.83c-0.629,0.629-0.629,1.648,0,2.278l10.2,10.201c0.63,0.629,1.648,0.629,2.278,0l14.802-14.802
			l5.515,5.515c0.425,0.425,1.056,0.578,1.63,0.394C94.766,31.232,95.19,30.742,95.288,30.146z"/>
	</g>
	<g>
		<path d="M69.854,95.288l28.271,4.69c0.512,0.086,1.035-0.082,1.401-0.449c0.002-0.003,0.002-0.003,0.002-0.003
			c0.368-0.37,0.535-0.892,0.448-1.406l-4.765-28.196c-0.1-0.594-0.525-1.081-1.1-1.265c-0.572-0.185-1.202-0.031-1.628,0.396
			l-5.513,5.513L72.169,59.765c-0.628-0.628-1.647-0.628-2.277,0.001L59.691,69.967c-0.629,0.629-0.629,1.648,0,2.277l14.802,14.802
			l-5.515,5.515c-0.425,0.425-0.577,1.055-0.393,1.63C68.768,94.766,69.258,95.19,69.854,95.288z"/>
	</g>
	<g>
		<path d="M30.146,4.712L1.874,0.022C1.361-0.064,0.84,0.104,0.473,0.471C0.47,0.474,0.47,0.474,0.47,0.474
			C0.103,0.844-0.064,1.366,0.023,1.88l4.766,28.197c0.1,0.593,0.525,1.081,1.099,1.264c0.573,0.186,1.202,0.032,1.629-0.395
			l5.513-5.513L27.83,40.234c0.63,0.63,1.648,0.63,2.278,0.001l10.201-10.201c0.63-0.63,0.63-1.648,0-2.278L25.507,12.954
			l5.515-5.515c0.424-0.425,0.577-1.056,0.394-1.63C31.232,5.234,30.742,4.81,30.146,4.712z"/>
	</g>
</g>
</svg>
